neru-light-classic/32x32/apps/xournal.svg

<?xml version="1.0" encoding="UTF-8" standalone="no"?>
<svg
   xmlns:dc="http://purl.org/dc/elements/1.1/"
   xmlns:cc="http://creativecommons.org/ns#"
   xmlns:rdf="http://www.w3.org/1999/02/22-rdf-syntax-ns#"
   xmlns:svg="http://www.w3.org/2000/svg"
   xmlns="http://www.w3.org/2000/svg"
   xmlns:sodipodi="http://sodipodi.sourceforge.net/DTD/sodipodi-0.dtd"
   xmlns:inkscape="http://www.inkscape.org/namespaces/inkscape"
   height="32"
   width="32"
   version="1"
   id="svg22"
   sodipodi:docname="xournal.svg"
   inkscape:version="0.92.1 r">
  <metadata
     id="metadata28">
    <rdf:RDF>
      <cc:Work
         rdf:about="">
        <dc:format>image/svg+xml</dc:format>
        <dc:type
           rdf:resource="http://purl.org/dc/dcmitype/StillImage" />
      </cc:Work>
    </rdf:RDF>
  </metadata>
  <defs
     id="defs26" />
  <sodipodi:namedview
     pagecolor="#ffffff"
     bordercolor="#666666"
     borderopacity="1"
     objecttolerance="10"
     gridtolerance="10"
     guidetolerance="10"
     inkscape:pageopacity="0"
     inkscape:pageshadow="2"
     inkscape:window-width="640"
     inkscape:window-height="480"
     id="namedview24"
     showgrid="false"
     inkscape:zoom="8.375"
     inkscape:cx="-6.6865672"
     inkscape:cy="2.0873932"
     inkscape:current-layer="svg22" />
  <polygon
     display="none"
     points="732.5 497.5 664 430.5 588 333 517.5 214 500 192 386 355 328 328 304 332.5 299.5 366 318.5 403.5 338 431 309.5 462 275.5 507 300 533 304 551 318.5 569.5 340.5 583 351.5 604.5 373.5 617 395 637.5 452.5 723 488.5 788.5 502 812.5 551.5 721.5 612.5 637 628.5 616 668 619.5 707 615 713 603 688.5 578 676.5 569.5 693.5 560.5 693.5 540"
     transform="matrix(0.063142,0,0,0.063142,-196.9,-23.5126)"
     style="display:none;fill:#5a0e00"
     id="polygon2" />
  <path
     inkscape:connector-curvature="0"
     style="opacity:1;fill:#cccccc;fill-opacity:1;fill-rule:evenodd;stroke:none;stroke-width:1.03534329;stroke-linecap:round;stroke-linejoin:bevel;stroke-miterlimit:4;stroke-dasharray:none;stroke-dashoffset:0;stroke-opacity:1"
     d="M 1.898437,7.7617192 V 24.527344 c 0,3.088651 2.487521,5.574219 5.576172,5.574219 h 17.052734 c 3.088651,0 5.574219,-2.485568 5.574219,-5.574219 V 7.7617192 Z"
     id="path4520" />
  <path
     style="opacity:1;fill:#f7c13e;fill-opacity:1;fill-rule:evenodd;stroke:none;stroke-width:1.03534329;stroke-linecap:round;stroke-linejoin:bevel;stroke-miterlimit:4;stroke-dasharray:none;stroke-dashoffset:0;stroke-opacity:1"
     d="M 22.632812 1.8984375 C 22.6026 1.9790912 22.5 1.9762428 22.5 2.0722656 L 22.5 4.8535156 C 22.5 5.1909806 22.709161 5.4628906 22.96875 5.4628906 L 24.03125 5.4628906 C 24.290839 5.4628906 24.5 5.1909806 24.5 4.8535156 L 24.5 2.0722656 C 24.5 1.9762428 24.3974 1.9790912 24.367188 1.8984375 L 22.632812 1.8984375 z "
     id="path4551" />
  <path
     style="opacity:1;fill:#f7c13e;fill-opacity:1;fill-rule:evenodd;stroke:none;stroke-width:1.03534329;stroke-linecap:round;stroke-linejoin:bevel;stroke-miterlimit:4;stroke-dasharray:none;stroke-dashoffset:0;stroke-opacity:1"
     d="M 17.632812 1.8984375 C 17.6026 1.9790912 17.5 1.9762428 17.5 2.0722656 L 17.5 4.8535156 C 17.5 5.1909806 17.709161 5.4628906 17.96875 5.4628906 L 19.03125 5.4628906 C 19.290839 5.4628906 19.5 5.1909806 19.5 4.8535156 L 19.5 2.0722656 C 19.5 1.9762428 19.3974 1.9790912 19.367188 1.8984375 L 17.632812 1.8984375 z "
     id="path4549" />
  <path
     style="opacity:1;fill:#f7c13e;fill-opacity:1;fill-rule:evenodd;stroke:none;stroke-width:1.03534329;stroke-linecap:round;stroke-linejoin:bevel;stroke-miterlimit:4;stroke-dasharray:none;stroke-dashoffset:0;stroke-opacity:1"
     d="M 12.632812 1.8984375 C 12.6026 1.9790912 12.5 1.9762428 12.5 2.0722656 L 12.5 4.8535156 C 12.5 5.1909806 12.709161 5.4628906 12.96875 5.4628906 L 14.03125 5.4628906 C 14.290839 5.4628906 14.5 5.1909806 14.5 4.8535156 L 14.5 2.0722656 C 14.5 1.9762428 14.3974 1.9790912 14.367188 1.8984375 L 12.632812 1.8984375 z "
     id="path4547" />
  <path
     style="opacity:1;fill:#4f4f4f;fill-opacity:1;fill-rule:evenodd;stroke:none;stroke-width:1.03534329;stroke-linecap:round;stroke-linejoin:bevel;stroke-miterlimit:4;stroke-dasharray:none;stroke-dashoffset:0;stroke-opacity:1"
     d="M 7.6328125 1.8984375 L 7.4746094 1.8984375 C 4.3859584 1.8984375 1.8984375 4.3859586 1.8984375 7.4746094 L 1.8984375 7.7617188 L 30.101562 7.7617188 L 30.101562 7.4746094 C 30.101562 4.3859586 27.615995 1.8984375 24.527344 1.8984375 L 24.367188 1.8984375 C 24.3974 1.9790912 24.5 1.9762428 24.5 2.0722656 L 24.5 4.8535156 C 24.5 5.1909806 24.290839 5.4628906 24.03125 5.4628906 L 22.96875 5.4628906 C 22.709161 5.4628906 22.5 5.1909806 22.5 4.8535156 L 22.5 2.0722656 C 22.5 1.9762428 22.6026 1.9790912 22.632812 1.8984375 L 19.367188 1.8984375 C 19.3974 1.9790912 19.5 1.9762428 19.5 2.0722656 L 19.5 4.8535156 C 19.5 5.1909806 19.290839 5.4628906 19.03125 5.4628906 L 17.96875 5.4628906 C 17.709161 5.4628906 17.5 5.1909806 17.5 4.8535156 L 17.5 2.0722656 C 17.5 1.9762428 17.6026 1.9790912 17.632812 1.8984375 L 14.367188 1.8984375 C 14.3974 1.9790912 14.5 1.9762428 14.5 2.0722656 L 14.5 4.8535156 C 14.5 5.1909806 14.290839 5.4628906 14.03125 5.4628906 L 12.96875 5.4628906 C 12.709161 5.4628906 12.5 5.1909806 12.5 4.8535156 L 12.5 2.0722656 C 12.5 1.9762428 12.6026 1.9790912 12.632812 1.8984375 L 9.3671875 1.8984375 C 9.3973996 1.9790912 9.5 1.9762428 9.5 2.0722656 L 9.5 4.8535156 C 9.5 5.1909806 9.290839 5.4628906 9.03125 5.4628906 L 7.96875 5.4628906 C 7.709162 5.4628906 7.5 5.1909806 7.5 4.8535156 L 7.5 2.0722656 C 7.5 1.9762428 7.6026003 1.9790912 7.6328125 1.8984375 z "
     id="path4545" />
  <path
     style="opacity:1;fill:#f7c13e;fill-opacity:1;fill-rule:evenodd;stroke:none;stroke-width:1.03534329;stroke-linecap:round;stroke-linejoin:bevel;stroke-miterlimit:4;stroke-dasharray:none;stroke-dashoffset:0;stroke-opacity:1"
     d="M 7.6328125 1.8984375 C 7.6026003 1.9790912 7.5 1.9762428 7.5 2.0722656 L 7.5 4.8535156 C 7.5 5.1909806 7.709162 5.4628906 7.96875 5.4628906 L 9.03125 5.4628906 C 9.290839 5.4628906 9.5 5.1909806 9.5 4.8535156 L 9.5 2.0722656 C 9.5 1.9762428 9.3973996 1.9790912 9.3671875 1.8984375 L 7.6328125 1.8984375 z "
     id="rect4497-6" />
  <path
     d="m 11.489423,12.992002 a 0.99995319,0.99995319 0 0 0 -0.696361,1.716931 l 3.793401,3.793435 -3.793401,3.793371 a 0.99995319,0.99995319 0 1 0 1.414168,1.412906 l 3.793401,-3.79337 3.792139,3.79337 a 0.99995319,0.99995319 0 1 0 1.414168,-1.412906 l -3.793401,-3.793371 3.793401,-3.793435 A 0.99995546,0.99995546 0 0 0 19.79277,13.2948 L 16.000631,17.08817 12.20723,13.2948 a 0.99995319,0.99995319 0 0 0 -0.717807,-0.302798 z"
     style="opacity:1;fill:#4f4f4f;fill-opacity:1"
     id="path20"
     inkscape:connector-curvature="0" />
</svg>

<svg xmlns="http://www.w3.org/2000/svg" height="32" width="32" version="1"><path d="M1.898 7.762v16.765a5.563 5.563 0 0 0 5.577 5.575h17.052a5.561 5.561 0 0 0 5.575-5.575V7.762z" fill="#ccc" fill-rule="evenodd"/><path d="M22.633 1.898c-.03.081-.133.078-.133.174v2.782c0 .337.21.609.469.609h1.062c.26 0 .469-.272.469-.61v-2.78c0-.097-.103-.094-.133-.175h-1.734zM17.633 1.898c-.03.081-.133.078-.133.174v2.782c0 .337.21.609.469.609h1.062c.26 0 .469-.272.469-.61v-2.78c0-.097-.103-.094-.133-.175h-1.734zM12.633 1.898c-.03.081-.133.078-.133.174v2.782c0 .337.21.609.469.609h1.062c.26 0 .469-.272.469-.61v-2.78c0-.097-.103-.094-.133-.175h-1.734z" fill="#f7c13e" fill-rule="evenodd"/><path d="M7.633 1.898h-.158a5.565 5.565 0 0 0-5.577 5.577v.287h28.204v-.287a5.563 5.563 0 0 0-5.575-5.577h-.16c.03.081.133.078.133.174v2.782c0 .337-.21.609-.469.609H22.97c-.26 0-.469-.272-.469-.61v-2.78c0-.097.103-.094.133-.175h-3.266c.03.081.133.078.133.174v2.782c0 .337-.21.609-.469.609H17.97c-.26 0-.469-.272-.469-.61v-2.78c0-.097.103-.094.133-.175h-3.266c.03.081.133.078.133.174v2.782c0 .337-.21.609-.469.609H12.97c-.26 0-.469-.272-.469-.61v-2.78c0-.097.103-.094.133-.175H9.367c.03.081.133.078.133.174v2.782c0 .337-.21.609-.469.609H7.97c-.26 0-.469-.272-.469-.61v-2.78c0-.097.103-.094.133-.175z" fill="#4f4f4f" fill-rule="evenodd"/><path d="M7.633 1.898c-.03.081-.133.078-.133.174v2.782c0 .337.21.609.469.609H9.03c.26 0 .469-.272.469-.61v-2.78c0-.097-.103-.094-.133-.175H7.633z" fill="#f7c13e" fill-rule="evenodd"/><path d="M11.49 12.992a1 1 0 0 0-.697 1.717l3.793 3.793-3.793 3.794a1 1 0 1 0 1.414 1.413l3.794-3.794 3.792 3.794a1 1 0 1 0 1.414-1.413l-3.793-3.794 3.793-3.793a1 1 0 0 0-1.414-1.414L16 17.088l-3.794-3.793a1 1 0 0 0-.718-.303z" fill="#4f4f4f"/></svg>
